X:1
T:Title
%%score ( 1 2 ) { 3 | 4 }
L:1/8
Q:1/4=107
M:2/2
K:F
V:1 treble nm="Grand Piano, Soprano"
V:2 treble 
V:3 treble nm="Choir Pad, By and By (Howard)"
V:4 bass 
V:1
 [Ac]3 [GB] [FA]2 [GB]2 | [FA]2 [CG]2 [CF]4 | C2 C2 [CF]4 | [EG]2 [EG]2 [FA]4 | %4
w: By~John~Robson~Sweney * * *||||
 [FA]2 [FA]2 [FB]2 [FB]2 | [FB]2 [Fd]2 [Fc]4 | [Fc]2 [FA]2 [CF]4 | F2 [FA]2 [EG]4 | %8
w: ||||
 [EG]2 [FA]2 [GB]2 [GB]2 | [FA]2 [EG]2 [FA]4 | [FA]2 [GB]2 [Ac]2 [Ac]2 | [GB]2 [FA]2 [EG]4 | %12
w: ||||
 [EA]2 [EG]2 F2 [EG]2 | z4 .c4 | [Fd]2 [GB]2 [FA]4 | [EA]3 [EG] F4- | F4 [FA]4- | %17
w: |||||
 [FA]2 [CG]2 [CF]4 | C4 [Ac]4- | [Ac]2 [GB]2 [FA]4 | [CF]2 [CF]2 [EG]2 [EG]2 | [EG]2 [FA]2 [GB]4 | %22
w: |||||
 [EG]2 [EG]2 [FA]2 [FA]2 | [FA]2 [EB]2 [Fc]4 | [Fc]2 [Fc]2 [Fd]2 [Fd]2 | [Fd]2 [Bf]2 [Ac]2 [FA]2 | %26
w: ||||
 F2 [FG]2 [FA]4 | [EA]3 [CG] [CF]4- | [CF]4 z4 |] %29
w: |||
V:2
 x8 | x8 | x8 | x8 | x8 | x8 | x8 | x8 | x8 | x8 | x8 | x8 | x8 | [FA]2 [EB]2 F2- [Ff]2 | x8 | x8 | %16
 x8 | x8 | x8 | x8 | x8 | x8 | x8 | x8 | x8 | x8 | x8 | x8 | x8 |] %29
V:3
 C3 C C2 C2 | C2[K:bass] B,2 A,4 | A,2 A,2 C4 | C2 C2 C4 | C2 C2 D2 D2 | D2 B,2 C4 | %6
 C2 C2[K:bass] A,4 | =B,2 B,2 C4 | C2[K:treble] C2 C2 C2 | C2 C2 C4 | C2 C2 F2 F2 | C2 C2 C4 | %12
 C2 B,2 A,2 C2 | C2 C2 C4 | B,2 D2 C4 | C3[K:bass] B, A,4- | A,4 C4- | C2 B,2 A,4 | %18
 A,4[K:treble] F4- | F2 D2 C4 | A,2 A,2 C2 C2 | C2 C2 C4 | C2 C2 C2 C2 | C2 C2 C4 | %24
 C2 C2[K:bass] B,2 B,2 | B,2 D2 C4 | =B,2 B,2 C4 | C3 B, A,4- | A,4 z4 |] %29
V:4
 F,3 F, F,2 F,2 | F,2 F,2 F,4 | F,2 F,2 A,,4 | C,2 C,2 F,4 | F,2 F,2 B,2 B,2 | .B,4 A,4 | %6
 A,2 F,2 F,4 | D,2 D,2 C,4 | C,2 C,2 C,2 C,2 | C,2 C,2 F,4 | F,2 F,2 F,2 F,2 | E,2 F,2 C,4 | %12
 C,2 C,2 D,2 C,2 | F,2 G,2 A,4 | z2 B,2 z4 | C,3 C, F,4- | F,4 F,4- | F,2 F,2 F,4 | F,4 F,4- | %19
 F,2 F,2 F,4 | F,2 F,2 C,2 C,2 | C,2 C,2 C,4 | C,2 C,2 F,2 C,2 | C,2 G,2 A,4 | A,2 A,2 z4 | %25
 z2 B,,2 F,4 | D,2 D,2 C,4 | C,3 C, F,4- | F,4 z4 |] %29

